!!!OTL: 1077. Das Lied vom Wasser und Wein.
!!!ARE: Europa, Mitteleuropa, Deutschland, Rheinland, Neuwied, Wollendorf
!!!SCT: E1077
!!!TXL: @@DE
!!!YEM: Copyright 1995, estate of Helmut Schaffrath.
**kern	**text
*ICvox	*
*M6/8	*
*k[f#c#]	*
*D:	*
!LO:TX:a:t=Mäßig bewegt.	!
!LO:TX:a:t=Becker, Rhein. Liederb. Nr. N. Aus Wollendorf und Gönnersdorf bei Neuwied.	!
{8d	Jetʒt
=1	=1
8dL	laßt
8f#J	uns
8d	mal
4d	ſingen,
8a	ſo
=2	=2
8a	hübſch
8g	und
8e	ſo
4d}	fein,
{8dd	das
=3	=3
8dd	Lied-
8a	-chen
8a	vom
8a	Waſ-
8a	-ſer,
8a	das
=4	=4
8b	Lied-
8a	-chen
8g#	vom
4a}	Wein
{8a	Der
=5	=5
8a/L	Wein
8ddJ	.
8a	kanns
8a	Waſ-
8f#	-ſer
8d	nicht
=6	=6
4.b	lei-
4a}	-den,
{8a	drum
=7	=7
8a	thun
8f#	ſie
16f#	mit
16f#	ein-
8f#	-an-
8e	-der
8d	ſich
=8	=8
(4e	ſtrei-
8a)	.
4d}	-ten.
==	==
!!!AGN: Wett - Lied, Streit zwischen Wasser und Wein
!!!ONB: ESAC (Essen Associative Code) Database: ERK3
!!!AMT: compound duple
!!!AIN: vox
!!!EED: Helmut Schaffrath
!!!EEV: 1.0
!!!GTL: Raethsel-, Wett- und Wunschlieder, nebst Luegenmaerchen.
!!!URL-scan: https://rosdok.uni-rostock.de/mcrviewer/recordIdentifier/rosdok_ppn745177999/iview2/phys_0029.iview2?x=0&y=829.7667703802726&scale=0.6479838709677419&rotation=0&layout=singlePageLayout
!!!ENC: Anna Maria Matuszewska
!!!EEV: 2024/12/23
*-	*-
